packages/ffe-icons/icons/filled/md/replay_circle_filled.svg

<svg xmlns="http://www.w3.org/2000/svg" height="24" viewBox="0 -960 960 960" width="24"><path d="M480-278.461q-77.923 0-135.077-51.924Q287.769-382.308 279.692-459q-1.231-8.693 5.923-14.846Q292.769-480 302.307-480q9.077 0 16.489 5.815 7.412 5.816 8.972 14.954 7.462 56.308 50.668 94.693Q421.643-326.153 480-326.153q63.737 0 108.792-45.062t45.055-108.808q0-63.747-45.055-108.785Q543.737-633.847 480-633.847h-4.154l31.462 32.077q6.632 7.112 7.047 16.594.414 9.482-7.047 16.944-7.462 7.461-17.077 7.461-9.615 0-17.076-7.461l-74.769-74.769q-5.615-5.475-5.615-12.776t5.615-12.916l75.769-75.768q7.076-7.077 16.576-7.27 9.5-.192 16.962 7.27 7.461 7.461 7.461 17.076t-7.461 17.077l-28.155 28.769q83.923 1.231 142.962 59.616Q681.539-563.539 681.539-480q0 83.639-58.95 142.589-58.951 58.95-142.589 58.95Zm-.067 178.46q78.836 0 148.204-29.92 69.369-29.92 120.682-81.21 51.314-51.291 81.247-120.629 29.933-69.337 29.933-148.173t-29.92-148.204q-29.92-69.369-81.21-120.682-51.291-51.314-120.629-81.247-69.337-29.933-148.173-29.933t-148.204 29.92q-69.369 29.92-120.682 81.21-51.314 51.291-81.247 120.629-29.933 69.337-29.933 148.173t29.92 148.204q29.92 69.369 81.21 120.682 51.291 51.314 120.629 81.247 69.337 29.933 148.173 29.933Z"/></svg>

<svg xmlns="http://www.w3.org/2000/svg" height="24" viewBox="0 -960 960 960" width="24"><path d="M480-278.46q-77.92 0-135.08-51.92-57.15-51.93-65.23-128.62-1.23-8.69 5.93-14.85 7.15-6.15 16.69-6.15 9.07 0 16.49 5.82 7.41 5.81 8.97 14.95 7.46 56.31 50.67 94.69 43.2 38.39 101.56 38.39 63.74 0 108.79-45.06 45.06-45.07 45.06-108.81 0-63.75-45.06-108.79-45.05-45.04-108.79-45.04h-4.15l31.46 32.08q6.63 7.11 7.04 16.59.42 9.49-7.04 16.95-7.46 7.46-17.08 7.46-9.61 0-17.08-7.46L398.39-643q-5.62-5.48-5.62-12.78 0-7.3 5.62-12.91l75.76-75.77q7.08-7.08 16.58-7.27 9.5-.19 16.96 7.27 7.46 7.46 7.46 17.08 0 9.61-7.46 17.07l-28.15 28.77q83.92 1.23 142.96 59.62 59.04 58.38 59.04 141.92 0 83.64-58.95 142.59T480-278.46ZM479.93-100q78.84 0 148.21-29.92t120.68-81.21q51.31-51.29 81.25-120.63Q860-401.1 860-479.93q0-78.84-29.92-148.21t-81.21-120.68q-51.29-51.31-120.63-81.25Q558.9-860 480.07-860q-78.84 0-148.21 29.92t-120.68 81.21q-51.31 51.29-81.25 120.63Q100-558.9 100-480.07q0 78.84 29.92 148.21t81.21 120.68q51.29 51.31 120.63 81.25Q401.1-100 479.93-100Z"/></svg>
